X:1
T: Miss Gibson
C:
R:Reel
Q: 232
K:Bb
M:4/4
L:1/8
|:F|B2 bg fd cB|AF cA dA cA|B2 bg fd cB|FB Ac dB BF|
B2 bg fd cB|AF cA dA cA|B2 bg fd cB|FB Ac dB Bd|
BG FE DE FD|EC C=B cG GA|BG FE DE FD|B,B Ac dB Bd|
BG FE DE FD|EC C=B cG GA|BG FE DE FD|B,B Ac dB B:|
